X: 21774
T: King Of The Pipers
R: jig
M: 6/8
K: Dmajor
dB|:=cAG ABA|DED AdB|=cAG ABA|DED GED|
=cAG ABA|DED AGE|FDF ECE|DEF GED:|
|:d2e fdf|ecA AFA|dcd efg|(3fga f gec|
d2e fdf|ecA AGE|FDF ECE|DEF GED:|
|:~B3 AGA|BGE Ed=c|B2G AGE|GED Dd=c|
~B3 AGA|BGE E2c|dcd ABG|FDD Dd=c:|

